img/svg_icons/insta.svg

<svg width="25" height="25" viewBox="0 0 25 25" fill="none" xmlns="http://www.w3.org/2000/svg">
<path fill-rule="evenodd" clip-rule="evenodd" d="M22.0419 0.59792C23.6745 0.608382 24.9914 1.94234 24.981 3.57489L24.8637 21.87C24.8533 23.5025 23.5193 24.8195 21.8868 24.809L3.59169 24.6918C1.95914 24.6813 0.642168 23.3474 0.652629 21.7148L0.769863 3.41974C0.780325 1.7872 2.11424 0.470224 3.74683 0.480686L22.0419 0.59792ZM12.8698 4.36958C10.6224 4.35518 10.3405 4.36288 9.45764 4.39751C8.57656 4.43206 7.97412 4.56808 7.44641 4.76932C6.90087 4.9773 6.43758 5.25731 5.97457 5.71437C5.51157 6.17149 5.22564 6.6312 5.01069 7.17398C4.80275 7.69907 4.65902 8.29971 4.61313 9.18028C4.56723 10.0626 4.55592 10.3444 4.54152 12.5918C4.52712 14.8393 4.53482 15.1212 4.5694 16.004C4.604 16.8851 4.74002 17.4875 4.94121 18.0153C5.1492 18.5608 5.42921 19.0241 5.88632 19.4871C6.34343 19.9501 6.80309 20.236 7.34592 20.451C7.87101 20.6589 8.47166 20.8027 9.35222 20.8485C10.2346 20.8944 10.5164 20.9057 12.7638 20.9201C15.0112 20.9346 15.2931 20.9269 16.176 20.8922C17.0571 20.8577 17.6595 20.7216 18.1872 20.5205C18.7327 20.3125 19.196 20.0325 19.659 19.5754C20.122 19.1182 20.408 18.6585 20.6229 18.1157C20.8309 17.5907 20.9746 16.99 21.0204 16.1094C21.0664 15.2271 21.0777 14.9453 21.0921 12.6979C21.1065 10.4505 21.0988 10.1686 21.0642 9.2857C21.0296 8.40462 20.8936 7.80218 20.6924 7.27446C20.4844 6.72897 20.2044 6.26564 19.7473 5.80263C19.2902 5.33967 18.8305 5.05375 18.2877 4.83879C17.7626 4.6308 17.162 4.48707 16.2814 4.44123C15.399 4.39529 15.1173 4.38398 12.8698 4.36958ZM12.8603 5.86064C15.0699 5.8748 15.3316 5.8849 16.2039 5.9303C17.0105 5.97231 17.4478 6.10993 17.7387 6.22506C18.124 6.37767 18.3985 6.5588 18.6862 6.85019C18.974 7.14164 19.1515 7.41847 19.2992 7.80567C19.4106 8.09802 19.5426 8.53705 19.5742 9.3441C19.6084 10.217 19.6152 10.4787 19.6011 12.6883C19.5869 14.8979 19.5768 15.1596 19.5314 16.032C19.4894 16.8385 19.3518 17.2758 19.2366 17.5667C19.084 17.9521 18.9029 18.2265 18.6115 18.5143C18.32 18.802 18.0432 18.9796 17.656 19.1272C17.3636 19.2387 16.9246 19.3707 16.1176 19.4023C15.2449 19.4365 14.9831 19.4433 12.7733 19.4291C10.5636 19.415 10.302 19.4048 9.42972 19.3594C8.62314 19.3175 8.18584 19.1798 7.89494 19.0647C7.50961 18.9121 7.23512 18.731 6.94739 18.4395C6.65966 18.1481 6.48207 17.8713 6.33445 17.4841C6.22302 17.1917 6.09101 16.7527 6.05934 15.9456C6.02512 15.0728 6.01838 14.811 6.03254 12.6014C6.0467 10.3918 6.05679 10.1301 6.1022 9.25777C6.14421 8.45119 6.28183 8.01389 6.397 7.723C6.54956 7.33772 6.73069 7.06318 7.02214 6.77545C7.31358 6.48776 7.59037 6.31017 7.97762 6.16251C8.26996 6.05112 8.70899 5.91911 9.51605 5.88745C10.3889 5.85322 10.6507 5.84648 12.8603 5.86064ZM12.844 8.39539C10.4971 8.38035 8.58237 10.2707 8.56733 12.6176C8.55229 14.9646 10.4427 16.8793 12.7896 16.8943C15.1365 16.9094 17.0512 15.019 17.0663 12.6721C17.0813 10.3252 15.191 8.41042 12.844 8.39539ZM12.7991 15.4033C11.2757 15.3935 10.0486 14.1506 10.0584 12.6272C10.0682 11.1037 11.311 9.87669 12.8345 9.88645C14.3579 9.89621 15.585 11.1391 15.5752 12.6625C15.5655 14.186 14.3226 15.413 12.7991 15.4033ZM18.2555 8.26219C18.252 8.81062 17.8045 9.25232 17.2561 9.24881C16.7077 9.24529 16.266 8.7979 16.2695 8.24946C16.273 7.70102 16.7204 7.25927 17.2688 7.26279C17.8173 7.2663 18.2591 7.71375 18.2555 8.26219Z" fill="white"/>
</svg>

<svg width="25" height="25" fill="none" xmlns="http://www.w3.org/2000/svg"><path fill-rule="evenodd" clip-rule="evenodd" d="M22.042.598a2.96 2.96 0 012.939 2.977l-.117 18.295a2.96 2.96 0 01-2.977 2.939l-18.295-.117a2.96 2.96 0 01-2.94-2.977L.77 3.42A2.96 2.96 0 013.747.48l18.295.118zM12.87 4.37c-2.248-.015-2.53-.007-3.412.028-.881.034-1.484.17-2.012.371a4.057 4.057 0 00-1.471.945 4.057 4.057 0 00-.964 1.46c-.208.525-.352 1.126-.398 2.006-.046.883-.057 1.164-.071 3.412-.015 2.247-.007 2.53.027 3.412.035.881.171 1.483.372 2.011.208.546.488 1.01.945 1.472.457.463.917.749 1.46.964.525.208 1.126.352 2.006.398.883.045 1.164.057 3.412.071 2.247.015 2.53.007 3.412-.028.881-.034 1.484-.17 2.011-.372a4.057 4.057 0 001.472-.945c.463-.457.749-.916.964-1.46.208-.524.352-1.125.397-2.006.046-.882.058-1.164.072-3.411.015-2.248.007-2.53-.028-3.412-.034-.881-.17-1.484-.372-2.012a4.057 4.057 0 00-.945-1.471 4.057 4.057 0 00-1.46-.964c-.524-.208-1.125-.352-2.006-.398-.882-.046-1.164-.057-3.411-.071zm-.01 1.49c2.21.015 2.472.025 3.344.07.806.042 1.244.18 1.535.295.385.153.66.334.947.625.288.292.465.568.613.956.112.292.244.731.275 1.538.034.873.041 1.135.027 3.344-.014 2.21-.024 2.472-.07 3.344-.042.806-.18 1.244-.294 1.535-.153.385-.334.66-.625.947a2.565 2.565 0 01-.956.613c-.292.112-.731.244-1.538.275-.873.034-1.135.041-3.345.027-2.21-.014-2.471-.024-3.343-.07-.807-.042-1.244-.18-1.535-.294a2.563 2.563 0 01-.948-.626 2.563 2.563 0 01-.613-.955c-.111-.292-.243-.731-.275-1.538-.034-.873-.04-1.135-.026-3.345.014-2.21.024-2.47.07-3.343.041-.807.179-1.244.294-1.535a2.58 2.58 0 01.625-.948c.292-.287.568-.465.956-.612.292-.112.731-.244 1.538-.276.873-.034 1.135-.04 3.344-.026zm-.016 2.535a4.25 4.25 0 10-.054 8.5 4.25 4.25 0 00.054-8.5zm-.045 7.008a2.758 2.758 0 11.036-5.517 2.758 2.758 0 01-.036 5.517zm5.457-7.14a.993.993 0 11-1.987-.014.993.993 0 011.987.013z" fill="#fff"/></svg>
